X: 15513
T: Glenside, The
R: polka
M: 2/4
K: Eminor
|:B2 BA|FA D2|EB BA|Be ed|
B2 BA|FA D2|FD AF|E2 E>A:|
|:Be ed/e/|fe d2|Be ed/e/|fe d2|
Be ed/e/|fe d2|AF dF|E2 E>A:|

